source/assets/images/icons/logo-jp.svg

<?xml version="1.0" encoding="UTF-8" standalone="no"?>
<svg width="39px" height="40px" viewBox="0 0 39 40" version="1.1" xmlns="http://www.w3.org/2000/svg" xmlns:xlink="http://www.w3.org/1999/xlink" xmlns:sketch="http://www.bohemiancoding.com/sketch/ns">
    <!-- Generator: Sketch 3.2.2 (9983) - http://www.bohemiancoding.com/sketch -->
    <title>logo-jp</title>
    <desc>Created with Sketch.</desc>
    <defs></defs>
    <g id="assets/icons" stroke="none" stroke-width="1" fill="none" fill-rule="evenodd" sketch:type="MSPage">
        <g id="logo-jp" sketch:type="MSLayerGroup">
            <path class="logo-jp-bg" d="M0.00838709677,0 L39,0 L39,39.9915194 L0.00838709677,39.9915194 L0.00838709677,0 Z" id="Fill-1" fill="#474747" sketch:type="MSShapeGroup"></path>
            <path class="logo-jp-letter" d="M11.0017742,29.6483392 L11.2387097,29.6483392 C11.6906344,29.6483392 12.0468065,29.4562544 12.3079247,29.215689 C12.6882796,28.8313781 12.8539247,28.1354064 12.8539247,27.6545583 L12.8539247,15.549682 C12.8539247,14.3734276 13.6379785,14.0609187 13.9708065,14.0609187 C13.9708065,14.0609187 14.541129,14.0609187 14.541129,14.6373145 C14.541129,14.7575972 14.517086,14.9974558 14.1129677,15.2137102 C13.9940108,15.2856537 13.947043,15.4298233 13.947043,15.549682 L13.947043,27.7026148 C13.947043,28.6876325 13.6620215,29.4077739 13.1870323,29.8881979 C12.7119032,30.3684806 11.999,30.6332155 11.0966882,30.6332155 C10.7877634,30.6332155 10.5267849,30.4409894 10.5267849,30.1287633 C10.5267849,29.8407067 10.7167527,29.6483392 11.0017742,29.6483392 L11.0017742,29.6483392 Z M13.3768602,10.7462898 C12.8307204,10.7462898 12.474129,10.3619788 12.474129,9.83378092 C12.474129,9.32918728 12.8307204,8.96918728 13.3768602,8.96918728 C13.8993763,8.96918728 14.279172,9.32918728 14.279172,9.83378092 C14.279172,10.3619788 13.8993763,10.7462898 13.3768602,10.7462898 L13.3768602,10.7462898 Z" id="Fill-2" fill="currentColor" sketch:type="MSShapeGroup"></path>
            <path class="logo-jp-letter" d="M18.6503871,16.8712367 C19.9092903,14.7089753 21.6196989,14.0609187 23.234914,14.0609187 C26.5606774,14.0609187 28.8644731,17.0390106 28.8644731,20.449894 C28.8644731,23.7163251 26.4886882,26.5498233 23.234914,26.5498233 C21.4294516,26.5498233 19.9804409,26.045371 18.6503871,23.980212 L18.6503871,29.1437456 C18.6503871,30.3208481 17.8667527,30.6332155 17.5343441,30.6332155 C17.5343441,30.6332155 16.9638817,30.6332155 16.9638817,30.0565371 C16.9638817,29.9365371 16.9876452,29.6961131 17.3917634,29.480424 C17.5101613,29.4077739 17.5579677,29.2640283 17.5579677,29.1437456 L17.5579677,15.549682 C17.5579677,15.4298233 17.5101613,15.2856537 17.3917634,15.2137102 C16.9876452,14.9974558 16.9638817,14.7575972 16.9638817,14.6373145 C16.9638817,14.0609187 17.5343441,14.0609187 17.5343441,14.0609187 C17.8667527,14.0609187 18.6503871,14.3734276 18.6503871,15.549682 L18.6503871,16.8712367 L18.6503871,16.8712367 Z M23.210871,25.4452297 C25.9903548,25.4452297 27.7713548,23.0913074 27.7713548,20.449894 C27.7713548,17.855265 26.0380215,15.165371 23.210871,15.165371 C20.3844194,15.165371 18.6503871,17.8318021 18.6503871,20.2812721 L18.6503871,20.4733569 C18.6503871,23.1875618 20.5274194,25.4452297 23.210871,25.4452297 L23.210871,25.4452297 Z" id="Fill-3" fill="currentColor" sketch:type="MSShapeGroup"></path>
        </g>
    </g>
</svg>

<svg width="39" height="40" viewBox="0 0 39 40" xmlns="http://www.w3.org/2000/svg"><title>logo-jp</title><g fill="none" fill-rule="evenodd"><path class="logo-jp-bg" d="M.008 0H39v39.992H.008V0z" fill="#474747"/><path class="logo-jp-letter" d="M11.002 29.648h.237c.45 0 .807-.192 1.068-.432.38-.385.546-1.08.546-1.56V15.55c0-1.177.784-1.49 1.117-1.49 0 0 .57 0 .57.577 0 .12-.023.36-.427.577-.12.072-.166.216-.166.336v12.153c0 .985-.285 1.705-.76 2.185-.475.48-1.188.745-2.09.745-.31 0-.57-.192-.57-.504 0-.29.19-.482.475-.482zm2.375-18.902c-.546 0-.903-.384-.903-.912 0-.505.357-.865.903-.865.522 0 .902.36.902.864 0 .528-.38.912-.903.912zM18.65 16.87c1.26-2.16 2.97-2.81 4.585-2.81 3.326 0 5.63 2.98 5.63 6.39 0 3.266-2.376 6.1-5.63 6.1-1.806 0-3.255-.505-4.585-2.57v5.164c0 1.177-.783 1.49-1.116 1.49 0 0-.57 0-.57-.577 0-.12.024-.36.428-.577.118-.072.166-.216.166-.336V15.55c0-.12-.048-.264-.166-.336-.404-.217-.428-.456-.428-.577 0-.576.57-.576.57-.576.333 0 1.116.313 1.116 1.49v1.32zm4.56 8.575c2.78 0 4.56-2.354 4.56-4.995 0-2.595-1.732-5.285-4.56-5.285-2.826 0-4.56 2.667-4.56 5.116v.193c0 2.715 1.877 4.972 4.56 4.972z" fill="currentColor"/></g></svg>
